public/external-logos/cloudflare-logo.svg

<svg width="137" height="51" viewBox="0 0 137 51" fill="none" xmlns="http://www.w3.org/2000/svg">
<path d="M110.731 30.2223C111.108 28.9631 110.983 27.7038 110.354 26.9483C109.726 26.1927 108.846 25.689 107.715 25.5631L85.845 25.3112C85.7193 25.3112 85.5936 25.1853 85.4679 25.1853C85.3422 25.0594 85.3422 24.9334 85.4679 24.8075C85.5936 24.5557 85.7193 24.4297 85.9706 24.4297L107.966 24.1779C110.605 24.052 113.371 21.9112 114.376 19.3927L115.633 16.1186C115.633 15.9927 115.759 15.8668 115.633 15.7409C114.25 9.31863 108.469 4.53345 101.682 4.53345C95.3972 4.53345 89.9927 8.56308 88.1073 14.2297C86.8504 13.3483 85.3422 12.8446 83.5826 12.9705C80.566 13.2223 78.178 15.7409 77.8009 18.7631C77.6752 19.5186 77.8009 20.2742 77.9266 21.0297C73.0248 21.1557 69.0027 25.1853 69.0027 30.2223C69.0027 30.726 69.0027 31.1038 69.1284 31.6075C69.1284 31.8594 69.3798 31.9853 69.5055 31.9853H109.851C110.103 31.9853 110.354 31.8594 110.354 31.6075L110.731 30.2223Z" fill="#f48120"/>
<path d="M117.644 16.1184H117.016C116.89 16.1184 116.764 16.2443 116.639 16.3703L115.759 19.3925C115.382 20.6517 115.507 21.911 116.136 22.6666C116.764 23.4221 117.644 23.9258 118.775 24.0517L123.426 24.3036C123.551 24.3036 123.677 24.4295 123.803 24.4295C123.928 24.5554 123.928 24.6814 123.803 24.8073C123.677 25.0591 123.551 25.1851 123.3 25.1851L118.524 25.4369C115.884 25.5629 113.119 27.7036 112.114 30.2221L111.862 31.3554C111.737 31.4814 111.862 31.7332 112.114 31.7332H128.705C128.956 31.7332 129.082 31.6073 129.082 31.3554C129.333 30.348 129.584 29.2147 129.584 28.0814C129.584 21.5332 124.18 16.1184 117.644 16.1184Z" fill="#faad3f"/>
<path d="M131.218 38.7851C130.59 38.7851 130.087 38.2814 130.087 37.6518C130.087 37.0222 130.59 36.5185 131.218 36.5185C131.847 36.5185 132.35 37.0222 132.35 37.6518C132.35 38.2814 131.847 38.7851 131.218 38.7851ZM131.218 36.7703C130.716 36.7703 130.339 37.1481 130.339 37.6518C130.339 38.1555 130.716 38.5333 131.218 38.5333C131.721 38.5333 132.098 38.1555 132.098 37.6518C132.098 37.1481 131.721 36.7703 131.218 36.7703ZM131.721 38.2814H131.47L131.218 37.9036H130.967V38.2814H130.716V37.1481H131.344C131.595 37.1481 131.721 37.274 131.721 37.5259C131.721 37.6518 131.595 37.7777 131.47 37.9036L131.721 38.2814ZM131.344 37.6518C131.47 37.6518 131.47 37.6518 131.47 37.5259C131.47 37.3999 131.344 37.3999 131.344 37.3999H130.967V37.7777L131.344 37.6518ZM18.6018 36.5185H21.367V44.074H26.1431V46.4666H18.6018V36.5185ZM29.0339 41.4296C29.0339 38.5333 31.2963 36.2666 34.4385 36.2666C37.5807 36.2666 39.7174 38.5333 39.7174 41.4296C39.7174 44.3259 37.455 46.5925 34.3128 46.5925C31.2963 46.5925 29.0339 44.3259 29.0339 41.4296ZM36.9523 41.4296C36.9523 39.9185 35.9468 38.6592 34.4385 38.6592C32.9303 38.6592 31.9248 39.9185 31.9248 41.3036C31.9248 42.6888 32.9303 43.9481 34.4385 43.9481C35.9468 44.1999 36.9523 42.9407 36.9523 41.4296ZM43.111 42.0592V36.5185H45.8761V42.0592C45.8761 43.4444 46.6303 44.1999 47.7615 44.1999C48.8927 44.1999 49.6468 43.5703 49.6468 42.1851V36.5185H52.4119V42.0592C52.4119 45.3333 50.5266 46.7185 47.7615 46.7185C44.8706 46.5925 43.111 45.2073 43.111 42.0592ZM56.5596 36.5185H60.456C63.9752 36.5185 66.1119 38.5333 66.1119 41.4296C66.1119 44.3259 63.9752 46.4666 60.456 46.4666H56.6853L56.5596 36.5185ZM60.456 43.9481C62.0899 43.9481 63.2211 43.0666 63.2211 41.4296C63.2211 39.7925 62.0899 38.911 60.456 38.911H59.3248V43.9481H60.456ZM70.0083 36.5185H77.9266V38.911H72.7734V40.5481H77.4239V42.8148H72.7734V46.4666H70.0083V36.5185ZM81.8229 36.5185H84.5881V44.074H89.3642V46.4666H81.8229V36.5185ZM96.5284 36.3925H99.2936L103.567 46.4666H100.55L99.7963 44.7036H95.9L95.1459 46.4666H92.255L96.5284 36.3925ZM99.0422 42.5629L97.911 39.7925L96.7798 42.5629H99.0422ZM107.086 36.5185H111.737C113.245 36.5185 114.25 36.8962 115.005 37.6518C115.633 38.2814 115.884 39.037 115.884 39.9185C115.884 41.4296 115.13 42.437 113.873 42.9407L116.261 46.4666H113.119L111.108 43.4444H109.851V46.4666H107.086V36.5185ZM111.611 41.3036C112.491 41.3036 113.119 40.7999 113.119 40.1703C113.119 39.4148 112.491 39.037 111.611 39.037H109.851V41.4296H111.611V41.3036ZM119.781 36.5185H127.825V38.7851H122.546V40.2962H127.322V42.5629H122.546V44.074H127.95V46.4666H119.781V36.5185ZM12.5688 42.6888C12.1917 43.5703 11.3119 44.1999 10.3064 44.1999C8.79817 44.1999 7.79267 42.9407 7.79267 41.5555C7.79267 40.1703 8.79817 38.911 10.3064 38.911C11.4376 38.911 12.3174 39.6666 12.6945 40.5481H15.5853C15.0826 38.1555 13.0716 36.3925 10.3064 36.3925C7.28991 36.3925 4.90184 38.6592 4.90184 41.5555C4.90184 44.4518 7.16423 46.7185 10.1807 46.7185C12.8202 46.7185 14.8312 44.9555 15.4596 42.6888H12.5688Z" fill="black"/>
</svg>

<svg width="137" height="51" fill="none" xmlns="http://www.w3.org/2000/svg"><path d="M110.731 30.222c.377-1.259.252-2.518-.377-3.274-.628-.755-1.508-1.259-2.639-1.385l-21.87-.252c-.126 0-.251-.126-.377-.126-.126-.126-.126-.252 0-.377.126-.252.251-.378.503-.378l21.995-.252c2.639-.126 5.405-2.267 6.41-4.785l1.257-3.274c0-.126.126-.252 0-.378-1.383-6.422-7.164-11.208-13.951-11.208-6.285 0-11.69 4.03-13.575 9.697-1.257-.882-2.765-1.385-4.524-1.26-3.017.252-5.405 2.77-5.782 5.793-.126.756 0 1.511.126 2.267-4.902.126-8.924 4.155-8.924 9.192 0 .504 0 .882.125 1.386 0 .251.252.377.377.377h40.346c.252 0 .503-.126.503-.377l.377-1.386Z" fill="#f48120"/><path d="M117.644 16.118h-.628c-.126 0-.252.126-.377.252l-.88 3.022c-.377 1.26-.252 2.519.377 3.275.628.755 1.508 1.259 2.639 1.385l4.651.252c.125 0 .251.126.377.126.125.125.125.251 0 .377-.126.252-.252.378-.503.378l-4.776.252c-2.64.126-5.405 2.267-6.41 4.785l-.252 1.133c-.125.126 0 .378.252.378h16.591c.251 0 .377-.126.377-.378.251-1.007.502-2.14.502-3.274 0-6.548-5.404-11.963-11.94-11.963Z" fill="#faad3f"/><path d="M131.218 38.785a1.128 1.128 0 0 1-1.131-1.133c0-.63.503-1.133 1.131-1.133.629 0 1.132.503 1.132 1.133s-.503 1.133-1.132 1.133Zm0-2.015a.86.86 0 0 0-.879.882.86.86 0 0 0 .879.881.86.86 0 0 0 .88-.881.86.86 0 0 0-.88-.882Zm.503 1.511h-.251l-.252-.377h-.251v.377h-.251v-1.133h.628c.251 0 .377.126.377.378 0 .126-.126.252-.251.378l.251.377Zm-.377-.63c.126 0 .126 0 .126-.125 0-.126-.126-.126-.126-.126h-.377v.378l.377-.126ZM18.602 36.519h2.765v7.556h4.776v2.393h-7.541v-9.948Zm10.432 4.912c0-2.897 2.262-5.163 5.404-5.163 3.143 0 5.28 2.266 5.28 5.163 0 2.896-2.263 5.163-5.405 5.163-3.017 0-5.28-2.267-5.28-5.163Zm7.918 0c0-1.511-1.005-2.77-2.514-2.77-1.508 0-2.513 1.259-2.513 2.644 0 1.385 1.005 2.644 2.513 2.644 1.509.252 2.514-1.007 2.514-2.518Zm6.159.63v-5.541h2.765v5.54c0 1.385.754 2.14 1.886 2.14 1.13 0 1.885-.629 1.885-2.014V36.52h2.765v5.54c0 3.274-1.885 4.66-4.65 4.66-2.891-.127-4.651-1.512-4.651-4.66Zm13.449-5.541h3.896c3.52 0 5.656 2.014 5.656 4.91 0 2.897-2.137 5.038-5.656 5.038h-3.77l-.126-9.948Zm3.896 7.43c1.634 0 2.765-.882 2.765-2.52 0-1.637-1.131-2.518-2.765-2.518h-1.131v5.037h1.131Zm9.552-7.43h7.919v2.392h-5.154v1.637h4.65v2.267h-4.65v3.652h-2.765v-9.948Zm11.815 0h2.765v7.555h4.776v2.393h-7.541v-9.948Zm14.705-.127h2.766l4.273 10.075h-3.017l-.754-1.763H95.9l-.754 1.763h-2.891l4.273-10.075Zm2.514 6.17-1.131-2.77-1.131 2.77h2.262Zm8.044-6.043h4.651c1.508 0 2.513.377 3.268 1.133.628.63.879 1.385.879 2.267 0 1.51-.754 2.518-2.011 3.022l2.388 3.526h-3.142l-2.011-3.023h-1.257v3.023h-2.765v-9.948Zm4.525 4.785c.88 0 1.508-.504 1.508-1.134 0-.755-.628-1.133-1.508-1.133h-1.76v2.393h1.76v-.126Zm8.17-4.785h8.044v2.266h-5.279v1.511h4.776v2.267h-4.776v1.511h5.404v2.393h-8.169v-9.948Zm-107.212 6.17c-.377.881-1.257 1.51-2.263 1.51-1.508 0-2.513-1.258-2.513-2.643 0-1.386 1.005-2.645 2.513-2.645 1.132 0 2.011.756 2.389 1.637h2.89c-.502-2.392-2.513-4.156-5.279-4.156-3.016 0-5.404 2.267-5.404 5.163 0 2.897 2.262 5.163 5.279 5.163 2.64 0 4.65-1.763 5.279-4.03h-2.891Z" fill="#000"/></svg>
